austria/municipalities/10924.svg

<?xml version="1.0" encoding="UTF-8" standalone="no"?>
<!-- Created with Inkscape (http://www.inkscape.org/) -->
<svg
   xmlns:svg="http://www.w3.org/2000/svg"
   xmlns="http://www.w3.org/2000/svg"
   version="1.0"
   width="132.46875"
   height="158.625"
   id="svg6137">
  <defs
     id="defs6139" />
  <g
     transform="translate(-99.375,-67.21875)"
     id="layer1">
    <path
       d="M 100.875,68.71875 L 101.1875,164.40625 C 103.5516,198.00451 131.4049,224.34374 165.625,224.34375 C 199.8451,224.34375 227.66715,198.0045 230.03125,164.40625 L 230.34375,68.71875 L 100.875,68.71875 z "
       style="opacity:1;fill:#f9f9f9;fill-opacity:1;fill-rule:nonzero;stroke:#000000;stroke-width:3;stroke-linecap:square;stroke-linejoin:miter;stroke-miterlimit:4;stroke-dasharray:none;stroke-dashoffset:0;stroke-opacity:1"
       id="rect7206" />
    <path
       d="M 165.5,83.28125 L 160.4375,97.5 L 162.8125,97.46875 L 159,108.09375 L 161.34375,108.0625 L 157.5625,118.6875 L 160.25,118.65625 L 155.375,132.3125 L 163.40625,132.1875 L 163.40625,144.34375 C 157.96432,144.47196 152.69188,145.14592 147.65625,146.34375 L 147.65625,136.75 L 154.78125,136.65625 L 149.625,123.125 L 152.625,123.09375 L 148.625,112.59375 L 151.15625,112.5625 L 147.15625,102 L 149.75,101.96875 L 144.375,87.90625 L 139.3125,102.125 L 141.6875,102.09375 L 137.875,112.71875 L 140.21875,112.6875 L 136.4375,123.3125 L 139.125,123.28125 L 134.25,136.9375 L 142.28125,136.8125 L 142.28125,147.875 C 136.28595,149.7957 130.6808,152.43395 125.65625,155.6875 L 125.65625,145.34375 L 132.78125,145.25 L 127.625,131.71875 L 130.625,131.6875 L 126.625,121.1875 L 129.15625,121.15625 L 125.15625,110.59375 L 127.75,110.5625 L 122.375,96.5 L 117.3125,110.71875 L 119.6875,110.6875 L 115.875,121.3125 L 118.21875,121.28125 L 114.4375,131.90625 L 117.125,131.875 L 112.25,145.53125 L 120.28125,145.40625 L 120.28125,159.59375 C 113.33463,165.17747 107.78473,172.02005 104.15625,179.71875 C 112.52664,205.67634 136.81144,224.34374 165.625,224.34375 C 194.08663,224.34375 218.10643,206.11936 226.75,180.65625 C 223.69755,173.83039 219.1604,167.63499 213.46875,162.375 L 213.46875,144.21875 L 220.59375,144.125 L 215.4375,130.59375 L 218.4375,130.5625 L 214.4375,120.0625 L 216.96875,120.03125 L 212.96875,109.46875 L 215.5625,109.4375 L 210.1875,95.375 L 205.125,109.59375 L 207.5,109.5625 L 203.6875,120.1875 L 206.03125,120.15625 L 202.25,130.78125 L 204.9375,130.75 L 200.0625,144.40625 L 208.09375,144.28125 L 208.09375,157.96875 C 203.18439,154.34525 197.66091,151.32677 191.65625,149.0625 L 191.65625,135.65625 L 198.78125,135.5625 L 193.625,122.03125 L 196.625,122 L 192.625,111.5 L 195.15625,111.46875 L 191.15625,100.90625 L 193.75,100.875 L 188.375,86.8125 L 183.3125,101.03125 L 185.6875,101 L 181.875,111.625 L 184.21875,111.59375 L 180.4375,122.21875 L 183.125,122.1875 L 178.25,135.84375 L 186.28125,135.71875 L 186.28125,147.28125 C 180.74033,145.67534 174.87229,144.68289 168.78125,144.40625 L 168.78125,132.125 L 175.90625,132.03125 L 170.75,118.5 L 173.75,118.46875 L 169.75,107.96875 L 172.28125,107.9375 L 168.28125,97.375 L 170.875,97.34375 L 165.5,83.28125 z "
       style="opacity:1;fill:#008000;fill-opacity:1;fill-rule:nonzero;stroke:#000000;stroke-width:1.5;stroke-linecap:square;stroke-linejoin:miter;stroke-miterlimit:4;stroke-dasharray:none;stroke-dashoffset:0;stroke-opacity:1"
       id="path7211" />
    <path
       d="M 176.09375,157.1875 L 169.625,163.65625 L 176.25,170.15625 L 165.75,180.65625 L 155.21875,170.15625 L 161.40625,163.9375 L 154.90625,157.46875 L 135.78125,176.65625 L 142.28125,183.125 L 148.5,176.875 L 159.0625,187.375 L 145.5,200.96875 C 143.75847,202.71529 143.75346,205.53972 145.5,207.28125 L 145.90625,207.6875 C 147.65279,209.42903 150.47721,209.43403 152.21875,207.6875 L 165.78125,194.09375 L 178.96875,207.21875 C 180.71529,208.96028 183.50847,208.96529 185.25,207.21875 L 185.6875,206.8125 C 187.42903,205.06596 187.40279,202.24154 185.65625,200.5 L 172.46875,187.375 L 183.03125,176.78125 L 192.75,186.3125 L 192.75,173.90625 L 176.09375,157.1875 z "
       style="opacity:1;fill:#f9f9f9;fill-opacity:1;fill-rule:nonzero;stroke:#000000;stroke-width:1.5;stroke-linecap:square;stroke-linejoin:miter;stroke-miterlimit:4;stroke-dasharray:none;stroke-dashoffset:0;stroke-opacity:1"
       id="rect7194" />
    <path
       d="M 100.875,68.71875 L 101.1875,164.40625 C 103.5516,198.00451 131.4049,224.34374 165.625,224.34375 C 199.8451,224.34375 227.66715,198.0045 230.03125,164.40625 L 230.34375,68.71875 L 100.875,68.71875 z "
       style="opacity:1;fill:none;fill-opacity:1;fill-rule:nonzero;stroke:#000000;stroke-width:3;stroke-linecap:square;stroke-linejoin:miter;stroke-miterlimit:4;stroke-dasharray:none;stroke-dashoffset:0;stroke-opacity:1"
       id="path13042" />
  </g>
</svg>

<svg xmlns="http://www.w3.org/2000/svg" version="1.0" width="132.469" height="158.625"><path d="m100.875 68.719.313 95.687c2.364 33.599 30.217 59.938 64.437 59.938s62.042-26.34 64.406-59.938l.313-95.687H100.875z" style="opacity:1;fill:#f9f9f9;fill-opacity:1;fill-rule:nonzero;stroke:#000;stroke-width:3;stroke-linecap:square;stroke-linejoin:miter;stroke-miterlimit:4;stroke-dasharray:none;stroke-dashoffset:0;stroke-opacity:1" transform="translate(-99.375 -67.219)"/><path d="M165.5 83.281 160.437 97.5l2.375-.031L159 108.094l2.344-.031-3.781 10.624 2.687-.03-4.875 13.656 8.031-.125v12.156c-5.442.128-10.714.802-15.75 2v-9.594l7.125-.094-5.156-13.531 3-.031-4-10.5 2.531-.031-4-10.563 2.594-.031-5.375-14.063-5.063 14.219 2.375-.031-3.812 10.625 2.344-.031-3.781 10.624 2.687-.03-4.875 13.656 8.031-.125v11.062c-5.995 1.92-11.6 4.559-16.625 7.813v-10.344l7.125-.094-5.156-13.531 3-.031-4-10.5 2.531-.032-4-10.562 2.594-.031-5.375-14.063-5.063 14.219 2.376-.031-3.813 10.624 2.344-.03-3.781 10.624 2.687-.031-4.875 13.656 8.031-.125v14.188c-6.946 5.583-12.496 12.426-16.125 20.125a64.436 64.436 0 0 0 61.469 44.625c28.462 0 52.481-18.225 61.125-43.688-3.052-6.826-7.59-13.021-13.281-18.281v-18.156l7.125-.094-5.156-13.531 3-.031-4-10.5 2.53-.032-4-10.562 2.595-.031-5.375-14.063-5.063 14.219 2.375-.031-3.813 10.624 2.344-.03-3.781 10.624 2.688-.031-4.875 13.656 8.03-.125v13.688c-4.909-3.624-10.432-6.642-16.437-8.906v-13.407l7.125-.094-5.156-13.53 3-.032-4-10.5 2.531-.031-4-10.563 2.594-.031-5.375-14.063-5.063 14.22 2.375-.032-3.812 10.625 2.344-.031-3.781 10.625 2.687-.031-4.875 13.656 8.031-.125v11.562a75.087 75.087 0 0 0-17.5-2.875v-12.281l7.125-.094-5.156-13.531 3-.031-4-10.5 2.531-.031-4-10.563 2.594-.031L165.5 83.28z" style="opacity:1;fill:green;fill-opacity:1;fill-rule:nonzero;stroke:#000;stroke-width:1.5;stroke-linecap:square;stroke-linejoin:miter;stroke-miterlimit:4;stroke-dasharray:none;stroke-dashoffset:0;stroke-opacity:1" transform="translate(-99.375 -67.219)"/><path d="m176.094 157.188-6.469 6.468 6.625 6.5-10.5 10.5-10.531-10.5 6.187-6.219-6.5-6.468-19.125 19.187 6.5 6.469 6.219-6.25 10.563 10.5-13.563 13.594a4.462 4.462 0 0 0 0 6.312l.406.406a4.462 4.462 0 0 0 6.313 0l13.562-13.593 13.188 13.125a4.424 4.424 0 0 0 6.281 0l.438-.406c1.741-1.747 1.715-4.571-.032-6.313l-13.187-13.125 10.562-10.594 9.719 9.531v-12.406l-16.656-16.719z" style="opacity:1;fill:#f9f9f9;fill-opacity:1;fill-rule:nonzero;stroke:#000;stroke-width:1.5;stroke-linecap:square;stroke-linejoin:miter;stroke-miterlimit:4;stroke-dasharray:none;stroke-dashoffset:0;stroke-opacity:1" transform="translate(-99.375 -67.219)"/><path d="m100.875 68.719.313 95.687c2.364 33.599 30.217 59.938 64.437 59.938s62.042-26.34 64.406-59.938l.313-95.687H100.875z" style="opacity:1;fill:none;fill-opacity:1;fill-rule:nonzero;stroke:#000;stroke-width:3;stroke-linecap:square;stroke-linejoin:miter;stroke-miterlimit:4;stroke-dasharray:none;stroke-dashoffset:0;stroke-opacity:1" transform="translate(-99.375 -67.219)"/></svg>
